X: 1
T: The Wayside Waggon
R: reel
M: 4/4
L: 1/8
K: Gmin
B2 bg fdcB|AFcF dFcF|B2 bg fdcB|ABce dBBc|
B2 bg fdcB|AFcF dFcF|B2 bg fdcB|GABc dBBc||
BGFE DEFD|C2 c=B cGGA|BGFE DEFD|B,BBc dBBA|
BGFE DEFD|C2 c=B cGGA|BGFE DEFD|B,2 Bc dBBA||

